build/img/viber.svg

<svg width="26" height="28" viewBox="0 0 26 28" fill="none" xmlns="http://www.w3.org/2000/svg">
<path d="M25.6202 9.88242C25.6205 7.25272 24.5897 4.77383 22.7182 2.90228C20.8466 1.03073 18.3677 0 15.7378 0H9.88242C9.8822 0 9.8822 0 9.8822 0C7.25272 0 4.77362 1.03073 2.90228 2.90207C1.03073 4.77383 0 7.25272 0 9.88242V14.4851C0 16.5218 0.621216 18.4807 1.79657 20.1506C2.8335 21.6238 4.22803 22.7746 5.85391 23.5041V26.1479C5.85391 27.5149 6.61932 28 7.27472 28C7.74298 28 8.21124 27.7689 8.66711 27.3132L11.6125 24.3678L15.738 24.3676C18.3677 24.3676 20.8466 23.3368 22.7182 21.4655C24.5897 19.5939 25.6205 17.1148 25.6205 14.4851L25.6202 9.88242ZM15.738 22.7269L11.2729 22.7271C11.0552 22.7271 10.8467 22.8134 10.6929 22.9673L7.50714 26.153C7.50308 26.1573 7.49881 26.1613 7.49454 26.1654C7.49454 26.1596 7.49454 26.1537 7.49454 26.1479V22.9566C7.49454 22.6163 7.28455 22.3114 6.96667 22.1901C3.78113 20.9746 1.64084 17.8781 1.64084 14.4851V9.88242C1.64084 7.69086 2.50089 5.62384 4.06247 4.06204C5.62405 2.50067 7.69086 1.64062 9.88242 1.64062H15.7378C17.9294 1.64062 19.9964 2.50067 21.558 4.06226C23.1198 5.62405 23.9798 7.69107 23.9796 9.88242L23.9798 14.4851C23.9796 19.0298 20.2824 22.7269 15.738 22.7269Z" fill="#9D9EBF"/>
<path d="M13.0093 3.62878C12.5562 3.62878 12.189 3.996 12.189 4.4491C12.189 4.90198 12.5562 5.26941 13.0093 5.26941C14.8866 5.26941 16.6518 6.00043 17.9792 7.32809C19.3069 8.65555 20.0379 10.4205 20.0379 12.298C20.0379 12.7509 20.4051 13.1183 20.8582 13.1183C21.3111 13.1183 21.6785 12.7511 21.6785 12.298C21.6785 9.98236 20.7768 7.80533 19.1394 6.16791C17.502 4.53049 15.325 3.62878 13.0093 3.62878Z" fill="#9D9EBF"/>
<path d="M16.5234 12.2978C16.5234 12.7507 16.8908 13.1181 17.3437 13.1181C17.7968 13.1181 18.164 12.7507 18.164 12.2978C18.164 9.45557 15.8515 7.14331 13.0093 7.14331C12.5562 7.14331 12.189 7.51053 12.189 7.96362C12.189 8.41672 12.5562 8.78394 13.0093 8.78394C14.9471 8.78394 16.5234 10.3603 16.5234 12.2978Z" fill="#9D9EBF"/>
<path d="M8.08419 8.1777L7.51862 8.19395C7.32175 8.1996 7.0044 8.28851 6.74317 8.61457C6.48175 8.94084 5.74142 9.73255 5.78639 11.2982C5.83136 12.8638 6.93245 14.3462 7.08596 14.5545C7.23966 14.7626 9.22887 18.0237 12.2652 19.2131C14.7887 20.2014 15.2901 19.976 15.8295 19.9074C16.3691 19.839 17.5536 19.0876 17.7782 18.3376C18.0028 17.5876 17.9845 16.9506 17.907 16.8197C17.8293 16.6892 17.6301 16.6153 17.3305 16.4648C17.0308 16.314 15.5618 15.5727 15.2882 15.4741C15.0146 15.3759 14.8164 15.3285 14.6287 15.6529C14.441 15.9766 13.8825 16.7292 13.7164 16.9464C13.5505 17.1639 13.379 17.1955 13.0792 17.0447C12.7794 16.8936 11.8288 16.5786 10.6703 15.5272C9.76853 14.7088 9.1287 13.6505 8.94732 13.337C8.76614 13.0236 8.91491 12.847 9.05834 12.6839C9.18687 12.5377 9.36041 12.3377 9.50267 12.1477C9.64474 11.9576 9.68291 11.8238 9.77534 11.6086C9.86758 11.3935 9.81297 11.209 9.7347 11.0521C9.65623 10.895 9.04467 9.33769 8.76411 8.7159L8.7643 8.7159C8.52797 8.19226 8.29473 8.18104 8.08419 8.1777Z" fill="#9D9EBF"/>
</svg>

<svg width="26" height="28" fill="none" xmlns="http://www.w3.org/2000/svg"><path d="M25.62 9.882a9.81 9.81 0 0 0-2.902-6.98A9.813 9.813 0 0 0 15.738 0H9.882a9.812 9.812 0 0 0-6.98 2.902A9.813 9.813 0 0 0 0 9.882v4.603c0 2.037.621 3.996 1.797 5.666a9.916 9.916 0 0 0 4.057 3.353v2.644c0 1.367.765 1.852 1.42 1.852.469 0 .937-.231 1.393-.687l2.946-2.945h4.125a9.813 9.813 0 0 0 6.98-2.902 9.813 9.813 0 0 0 2.902-6.98V9.881zm-9.882 12.845h-4.465a.82.82 0 0 0-.58.24l-3.186 3.186-.012.012v-3.208a.82.82 0 0 0-.528-.767C3.78 20.975 1.64 17.878 1.64 14.485V9.882c0-2.191.86-4.258 2.421-5.82a8.183 8.183 0 0 1 5.82-2.421h5.856c2.191 0 4.258.86 5.82 2.421a8.182 8.182 0 0 1 2.422 5.82v4.603c0 4.545-3.698 8.242-8.242 8.242z" fill="#9D9EBF"/><path d="M13.01 3.629a.82.82 0 1 0 0 1.64 6.98 6.98 0 0 1 4.97 2.06 6.982 6.982 0 0 1 2.058 4.969.82.82 0 0 0 1.64 0 8.612 8.612 0 0 0-2.539-6.13 8.612 8.612 0 0 0-6.13-2.54z" fill="#9D9EBF"/><path d="M16.523 12.298a.82.82 0 0 0 1.641 0 5.16 5.16 0 0 0-5.155-5.155.82.82 0 1 0 0 1.64 3.518 3.518 0 0 1 3.514 3.515zm-8.439-4.12l-.565.016c-.197.006-.515.095-.776.42-.261.327-1.002 1.119-.957 2.684.045 1.566 1.146 3.048 1.3 3.257.154.208 2.143 3.469 5.18 4.658 2.523.988 3.024.763 3.563.694.54-.068 1.725-.82 1.95-1.57.224-.75.206-1.386.128-1.517-.078-.13-.277-.205-.576-.355-.3-.151-1.77-.892-2.043-.99-.273-.1-.472-.146-.66.178-.187.324-.745 1.076-.912 1.293-.165.218-.337.25-.637.099s-1.25-.466-2.409-1.518c-.901-.818-1.541-1.877-1.723-2.19-.18-.313-.032-.49.111-.653.129-.146.302-.346.445-.536.142-.19.18-.324.272-.54.093-.215.038-.399-.04-.556-.079-.157-.69-1.714-.97-2.336-.237-.524-.47-.535-.68-.538z" fill="#9D9EBF"/></svg>
